assets/features/channel/southeast-asia1/unionbank-philippines.svg

<svg width="80" height="80" viewBox="0 0 80 80" fill="none" xmlns="http://www.w3.org/2000/svg">
<rect width="80" height="80" rx="8" fill="#FF8000"/>
<path fill-rule="evenodd" clip-rule="evenodd" d="M47.7217 41.0542C46.0772 40.8367 45.3606 40.749 45.3606 40.749V34.7747C45.7668 34.877 48.4419 35.541 48.4419 35.541C50.0804 35.8714 50.9142 37.0871 50.9142 38.544C50.9142 40.0012 49.6429 41.3083 47.7217 41.0542ZM54.3214 43.5242C54.3214 43.5242 56.2198 41.5985 56.2198 37.9717C56.2198 34.9445 54.22 31.5894 50.6971 30.3267L39.1159 26.1348L39.0785 46.6358C39.0785 46.6358 39.0821 49.6049 35.8361 50.2325C33.663 50.6527 31.5447 48.6458 31.5447 46.1512C31.5475 46.1514 31.5566 29.9942 31.5478 23.3724L22.3999 20.0464V47.0357C22.3999 56.6762 30.9726 60.7542 36.2392 59.8244C42.5255 58.7146 45.3606 53.7591 45.3606 48.3958V46.4915L49.796 46.6461C51.263 46.6461 52.3538 47.9515 52.3538 49.3196C52.3538 50.5328 51.5234 51.8389 49.8142 51.9899L47.377 52.1794C46.9864 53.8167 46.1396 56.0761 44.2383 58.334L51.3797 57.0456C54.2556 56.5145 57.5999 53.9672 57.5999 49.7588C57.5999 47.9657 57.006 45.3414 54.3214 43.5242Z" fill="white"/>
</svg>

<svg xmlns="http://www.w3.org/2000/svg" width="80" height="80" fill="none" viewBox="0 0 80 80"><rect width="80" height="80" fill="#ff8000" rx="8"/><path fill="#fff" fill-rule="evenodd" d="M47.722 41.054c-1.645-.217-2.361-.305-2.361-.305v-5.974l3.08.766c1.64.33 2.473 1.546 2.473 3.003s-1.271 2.764-3.192 2.51m6.6 2.47s1.898-1.925 1.898-5.552c0-3.028-2-6.383-5.523-7.645l-11.581-4.192-.038 20.5s.004 2.97-3.242 3.598c-2.173.42-4.291-1.587-4.291-4.082.002 0 .012-16.157.003-22.779L22.4 20.046v26.99c0 9.64 8.573 13.718 13.84 12.788 6.285-1.11 9.12-6.065 9.12-11.428v-1.904l4.436.154c1.467 0 2.558 1.306 2.558 2.674 0 1.213-.83 2.519-2.54 2.67l-2.437.19c-.39 1.637-1.237 3.896-3.139 6.154l7.142-1.288c2.876-.532 6.22-3.079 6.22-7.287 0-1.793-.594-4.418-3.279-6.235" clip-rule="evenodd"/></svg>
